icons/mimetypes/64/application-vnd.ms-publisher.svg

<svg width="64" xmlns="http://www.w3.org/2000/svg" viewBox="0 0 64 64" height="64" xmlns:xlink="http://www.w3.org/1999/xlink">
 <defs>
  <linearGradient id="a" y1="17" x1="40" y2="31" x2="54" gradientUnits="userSpaceOnUse">
   <stop stop-color="#383e51"/>
   <stop offset="1" stop-color="#655c6f" stop-opacity="0"/>
  </linearGradient>
  <linearGradient id="b" y1="61" y2="3" x2="0" gradientUnits="userSpaceOnUse" gradientTransform="matrix(1 0 0-1 0 64)">
   <stop stop-color="#ffffff" stop-opacity="0"/>
   <stop offset="1" stop-color="#ffffff" stop-opacity=".2"/>
  </linearGradient>
  <path id="c" d="m10 61v-58h30l14 14v44h-14z"/>
 </defs>
 <use fill="#4bc94b" xlink:href="#c"/>
 <g transform="scale(1-1)">
  <rect width="30" x="10" opacity=".5" y="-4" fill="#ffffff" height="1"/>
  <rect width="44" x="10" opacity=".5" y="-61" height="1"/>
 </g>
 <g fill-rule="evenodd">
  <path opacity=".5" fill="#ffffff" d="m54 17l-14-14v14z"/>
  <path opacity=".2" fill="url(#a)" d="m40 17l14 14v-14z"/>
 </g>
 <path opacity=".75" fill="#ffffff" d="m35 21c-.554 0-1 .446-1 1v2h-12c-.554 0-1 .446-1 1v17c0 .554.446 1 1 1h17c.554 0 1-.446 1-1v-4h2c.554 0 1-.446 1-1v-15c0-.554-.446-1-1-1h-2zm0 1h7v15h-2v-12c0-.554-.446-1-1-1-1.556-.611-4.061-.985-4-2m-13 3h17v17h-17zm1 2v4h15v-4zm0 6v1h7v-1zm8 0v1h7v-1zm-8 3v1h7v-1zm8 0v1h7v-1zm-8 3v1h7v-1zm8 0v1h7v-1z"/>
 <use fill="url(#b)" xlink:href="#c"/>
</svg>

<?xml version="1.0" encoding="UTF-8" standalone="no"?>
<svg
   xmlns:dc="http://purl.org/dc/elements/1.1/"
   xmlns:cc="http://creativecommons.org/ns#"
   xmlns:rdf="http://www.w3.org/1999/02/22-rdf-syntax-ns#"
   xmlns:svg="http://www.w3.org/2000/svg"
   xmlns="http://www.w3.org/2000/svg"
   xmlns:xlink="http://www.w3.org/1999/xlink"
   xmlns:sodipodi="http://sodipodi.sourceforge.net/DTD/sodipodi-0.dtd"
   xmlns:inkscape="http://www.inkscape.org/namespaces/inkscape"
   viewBox="0 0 64 64"
   id="svg2"
   version="1.1"
   inkscape:version="0.91 r13725"
   sodipodi:docname="application-vnd.ms-publisher.svg"
   width="64"
   height="64">
  <metadata
     id="metadata84">
    <rdf:RDF>
      <cc:Work
         rdf:about="">
        <dc:format>image/svg+xml</dc:format>
        <dc:type
           rdf:resource="http://purl.org/dc/dcmitype/StillImage" />
        <dc:title />
      </cc:Work>
    </rdf:RDF>
  </metadata>
  <sodipodi:namedview
     pagecolor="#ffffff"
     bordercolor="#666666"
     borderopacity="1"
     objecttolerance="10"
     gridtolerance="10"
     guidetolerance="10"
     inkscape:pageopacity="0"
     inkscape:pageshadow="2"
     inkscape:window-width="1920"
     inkscape:window-height="1025"
     id="namedview82"
     showgrid="false"
     inkscape:showpageshadow="false"
     inkscape:zoom="7.4456032"
     inkscape:cx="29.468342"
     inkscape:cy="30.944075"
     inkscape:window-x="0"
     inkscape:window-y="26"
     inkscape:window-maximized="1"
     inkscape:current-layer="svg2"
     showguides="false"
     inkscape:object-nodes="true">
    <inkscape:grid
       type="xygrid"
       id="grid3413" />
    <sodipodi:guide
       position="0,64"
       orientation="64,0"
       id="guide3482" />
    <sodipodi:guide
       position="0,0"
       orientation="0,64"
       id="guide3484" />
    <sodipodi:guide
       position="64,0"
       orientation="-64,0"
       id="guide3486" />
    <sodipodi:guide
       position="64,64"
       orientation="0,-64"
       id="guide3488" />
    <sodipodi:guide
       position="10,61"
       orientation="58,0"
       id="guide3492" />
    <sodipodi:guide
       position="10,3"
       orientation="0,44"
       id="guide3494" />
    <sodipodi:guide
       position="54,3"
       orientation="-58,0"
       id="guide3496" />
    <sodipodi:guide
       position="54,61"
       orientation="0,-44"
       id="guide3498" />
    <sodipodi:guide
       position="54,47"
       orientation="-14,0"
       id="guide4310" />
    <sodipodi:guide
       position="54,61"
       orientation="0,-14"
       id="guide4312" />
    <sodipodi:guide
       position="21,43"
       orientation="22,0"
       id="guide4250" />
    <sodipodi:guide
       position="21,21"
       orientation="0,22"
       id="guide4252" />
    <sodipodi:guide
       position="43,21"
       orientation="-22,0"
       id="guide4254" />
    <sodipodi:guide
       position="43,43"
       orientation="0,-22"
       id="guide4256" />
  </sodipodi:namedview>
  <defs
     id="defs4">
    <linearGradient
       inkscape:collect="always"
       xlink:href="#linearGradient4410"
       id="linearGradient4427-5"
       y1="17"
       x1="40"
       y2="31"
       x2="54"
       gradientUnits="userSpaceOnUse" />
    <linearGradient
       inkscape:collect="always"
       id="linearGradient4410">
      <stop
         style="stop-color:#383e51"
         id="stop4412" />
      <stop
         offset="1"
         style="stop-color:#655c6f;stop-opacity:0"
         id="stop4414" />
    </linearGradient>
    <linearGradient
       inkscape:collect="always"
       id="linearGradient6251">
      <stop
         style="stop-color:#ffffff;stop-opacity:0"
         offset="0"
         id="stop6253" />
      <stop
         style="stop-color:#ffffff;stop-opacity:0.2"
         offset="1"
         id="stop6255" />
    </linearGradient>
    <linearGradient
       inkscape:collect="always"
       xlink:href="#linearGradient6251"
       id="linearGradient4306-5-3"
       y1="61"
       y2="3"
       x2="0"
       gradientUnits="userSpaceOnUse"
       gradientTransform="matrix(1,0,0,-1,0,64)" />
  </defs>
  <path
     inkscape:connector-curvature="0"
     style="fill:#4bc94b;fill-opacity:1"
     id="rect3500-9"
     d="m 10,61 0,-58 30,0 14,14 0,30 0,14 -14,0 -30,0 z" />
  <rect
     width="30"
     x="10"
     y="-4"
     height="1"
     style="fill:#ffffff;fill-opacity:1;opacity:0.5"
     id="rect4169-2"
     transform="scale(1,-1)" />
  <rect
     width="44"
     x="10"
     y="-61"
     height="1"
     style="fill:#000000;fill-opacity:1;opacity:0.5"
     id="rect4236-8"
     transform="scale(1,-1)" />
  <path
     inkscape:connector-curvature="0"
     style="fill:#ffffff;fill-opacity:1;fill-rule:evenodd;opacity:0.5"
     id="path4314-9"
     d="M 54,17 40,3 40,17 Z" />
  <path
     inkscape:connector-curvature="0"
     style="opacity:0.2;fill:url(#linearGradient4427-5);fill-rule:evenodd"
     id="path4320-7"
     d="M 40,17 54,31 54,17 Z" />
  <path
     style="fill:#ffffff;fill-opacity:1;opacity:0.75"
     d="M 35 21 C 34.446 21 34 21.446 34 22 L 34 24 L 22 24 C 21.446 24 21 24.446 21 25 L 21 42 C 21 42.554 21.446 43 22 43 L 39 43 C 39.554 43 40 42.554 40 42 L 40 38 L 42 38 C 42.554 38 43 37.554 43 37 L 43 22 C 43 21.446 42.554 21 42 21 L 40 21 L 35 21 z M 35 22 L 40 22 L 42 22 L 42 37 L 40 37 L 40 25 C 40 24.446 39.554 24 39 24 C 37.443639 23.38909 34.938791 23.015302 35 22 z M 22 25 L 39 25 L 39 42 L 22 42 L 22 25 z M 23 27 L 23 31 L 38 31 L 38 27 L 23 27 z M 23 33 L 23 34 L 30 34 L 30 33 L 23 33 z M 31 33 L 31 34 L 38 34 L 38 33 L 31 33 z M 23 36 L 23 37 L 30 37 L 30 36 L 23 36 z M 31 36 L 31 37 L 38 37 L 38 36 L 31 36 z M 23 39 L 23 40 L 30 40 L 30 39 L 23 39 z M 31 39 L 31 40 L 38 40 L 38 39 L 31 39 z "
     id="rect4191" />
  <path
     inkscape:connector-curvature="0"
     style="fill:url(#linearGradient4306-5-3);fill-opacity:1"
     id="rect3500-9-5"
     d="m 10,61 0,-58 30,0 14,14 0,30 0,14 -14,0 -30,0 z" />
</svg>
